lib/flags/s/USA.svg

<svg xmlns="http://www.w3.org/2000/svg" fill="none" viewBox="0 0 16 12"><mask id="USA_svg__a" width="16" height="12" x="0" y="0" mask-type="alpha" maskUnits="userSpaceOnUse"><path fill="#fff" d="M0 0H16V12H0z"/></mask><g mask="url(#USA_svg__a)"><path fill="#E31D1C" fill-rule="evenodd" d="M0 0H16V12H0V0Z" clip-rule="evenodd"/><path fill="#F7FCFF" fill-rule="evenodd" d="M0 1V2H16V1H0ZM0 3V4H16V3H0ZM0 6V5H16V6H0ZM0 7V8H16V7H0ZM0 10V9H16V10H0ZM0 12V11H16V12H0Z" clip-rule="evenodd"/><path fill="#2E42A5" d="M0 0H9V7H0z"/><path fill="#F7FCFF" fill-rule="evenodd" d="M1.04002 2.17375L1.56994 1.80462L1.981 2.10055H1.74826L2.21893 2.51685L2.05996 3.10055H1.81097L1.5692 2.56445L1.36302 3.10055H0.74826L1.21893 3.51685L1.04002 4.17375L1.56994 3.80462L1.981 4.10055H1.74826L2.21893 4.51685L2.05996 5.10055H1.81097L1.5692 4.56445L1.36302 5.10055H0.74826L1.21893 5.51685L1.04002 6.17375L1.56994 5.80462L2.08268 6.17375L1.92326 5.51685L2.33503 5.10055H2.14511L2.56994 4.80462L2.981 5.10055H2.74826L3.21893 5.51685L3.04002 6.17375L3.56994 5.80462L4.08268 6.17375L3.92326 5.51685L4.33503 5.10055H4.14511L4.56994 4.80462L4.981 5.10055H4.74826L5.21893 5.51685L5.04002 6.17375L5.56994 5.80462L6.08268 6.17375L5.92326 5.51685L6.33503 5.10055H6.14511L6.56994 4.80462L6.981 5.10055H6.74826L7.21893 5.51685L7.04002 6.17375L7.56994 5.80462L8.08268 6.17375L7.92326 5.51685L8.33503 5.10055H7.81097L7.5692 4.56445L7.36302 5.10055H7.06491L6.92326 4.51685L7.33503 4.10055H7.1451L7.56994 3.80462L8.08268 4.17375L7.92326 3.51685L8.33503 3.10055H7.81097L7.5692 2.56445L7.36302 3.10055H7.06491L6.92326 2.51685L7.33503 2.10055H7.1451L7.56994 1.80462L8.08268 2.17375L7.92326 1.51685L8.33503 1.10055H7.81097L7.5692 0.564453L7.36302 1.10055H6.74826L7.21893 1.51685L7.05996 2.10055H6.81097L6.5692 1.56445L6.36302 2.10055H6.06491L5.92326 1.51685L6.33503 1.10055H5.81097L5.5692 0.564453L5.36302 1.10055H4.74826L5.21893 1.51685L5.05996 2.10055H4.81097L4.5692 1.56445L4.36302 2.10055H4.06491L3.92326 1.51685L4.33503 1.10055H3.81097L3.5692 0.564453L3.36302 1.10055H2.74826L3.21893 1.51685L3.05996 2.10055H2.81097L2.5692 1.56445L2.36302 2.10055H2.06491L1.92326 1.51685L2.33503 1.10055H1.81097L1.5692 0.564453L1.36302 1.10055H0.74826L1.21893 1.51685L1.04002 2.17375ZM7.05996 4.10055L7.21893 3.51685L6.74826 3.10055H6.981L6.56994 2.80462L6.1451 3.10055H6.33503L5.92326 3.51685L6.06491 4.10055H6.36302L6.5692 3.56445L6.81097 4.10055H7.05996ZM5.981 4.10055L5.56994 3.80462L5.1451 4.10055H5.33503L4.92326 4.51685L5.06491 5.10055H5.36302L5.5692 4.56445L5.81097 5.10055H6.05996L6.21893 4.51685L5.74826 4.10055H5.981ZM4.21893 4.51685L4.05996 5.10055H3.81097L3.5692 4.56445L3.36302 5.10055H3.06491L2.92326 4.51685L3.33503 4.10055H3.1451L3.56994 3.80462L3.981 4.10055H3.74826L4.21893 4.51685ZM4.36302 4.10055H4.06491L3.92326 3.51685L4.33503 3.10055H4.1451L4.56994 2.80462L4.981 3.10055H4.74826L5.21893 3.51685L5.05996 4.10055H4.81097L4.5692 3.56445L4.36302 4.10055ZM3.05996 4.10055L3.21893 3.51685L2.74826 3.10055H2.981L2.56994 2.80462L2.1451 3.10055H2.33503L1.92326 3.51685L2.06491 4.10055H2.36302L2.5692 3.56445L2.81097 4.10055H3.05996ZM6.21893 2.51685L6.05996 3.10055H5.81097L5.5692 2.56445L5.36302 3.10055H5.06491L4.92326 2.51685L5.33503 2.10055H5.1451L5.56994 1.80462L5.981 2.10055H5.74826L6.21893 2.51685ZM3.981 2.10055L3.56994 1.80462L3.1451 2.10055H3.33503L2.92326 2.51685L3.06491 3.10055H3.36302L3.5692 2.56445L3.81097 3.10055H4.05996L4.21893 2.51685L3.74826 2.10055H3.981Z" clip-rule="evenodd"/></g></svg>

<svg xmlns="http://www.w3.org/2000/svg" fill="none" viewBox="0 0 16 12"><mask id="USA_svg__a" width="16" height="12" x="0" y="0" maskUnits="userSpaceOnUse"><path fill="#fff" d="M0 0h16v12H0z"/></mask><g mask="url(#USA_svg__a)"><path fill="#E31D1C" fill-rule="evenodd" d="M0 0h16v12H0V0z" clip-rule="evenodd"/><path fill="#F7FCFF" fill-rule="evenodd" d="M0 1v1h16V1H0zm0 2v1h16V3H0zm0 3V5h16v1H0zm0 1v1h16V7H0zm0 3V9h16v1H0zm0 2v-1h16v1H0z" clip-rule="evenodd"/><path fill="#2E42A5" d="M0 0h9v7H0z"/><path fill="#F7FCFF" fill-rule="evenodd" d="M1.04 2.174l.53-.37.411.297h-.233l.471.416-.159.584h-.249l-.242-.536-.206.536H.748l.471.416-.179.657.53-.37.411.297h-.233l.471.416-.159.584h-.249l-.242-.536-.206.536H.748l.471.416-.179.657.53-.37.513.37-.16-.657.412-.416h-.19l.425-.296.411.296h-.233l.471.416-.179.657.53-.37.513.37-.16-.657.412-.416h-.19l.425-.296.411.296h-.233l.471.416-.179.657.53-.37.513.37-.16-.657.412-.416h-.19l.425-.296.411.296h-.233l.471.416-.179.657.53-.37.513.37-.16-.657.412-.416h-.524l-.242-.536-.206.536h-.298l-.142-.584.412-.416h-.19l.425-.296.513.369-.16-.657.412-.416h-.524l-.242-.536-.206.536h-.298l-.142-.584.412-.416h-.19l.425-.296.513.369-.16-.657.412-.416h-.524L7.569.565l-.206.536h-.615l.471.416-.159.584h-.249l-.242-.536-.206.536h-.298l-.142-.584.412-.416h-.524L5.569.565l-.206.536h-.615l.471.416-.159.584h-.249l-.242-.536-.206.536h-.298l-.142-.584.412-.416h-.524L3.569.565l-.206.536h-.615l.471.416-.159.584h-.249l-.242-.536-.206.536h-.298l-.142-.584.412-.416h-.524L1.569.565l-.206.536H.748l.471.416-.179.657zM7.06 4.1l.159-.584-.47-.416h.232l-.411-.296-.425.296h.19l-.412.416.142.584h.298l.206-.536.242.536h.249zm-1.079 0l-.411-.296-.425.296h.19l-.412.416.142.584h.298l.206-.536.242.536h.249l.159-.584-.47-.416h.232zm-1.762.416L4.06 5.1h-.249l-.242-.536-.206.536h-.298l-.142-.584.412-.416h-.19l.425-.296.411.296h-.233l.471.416zm.144-.416h-.298l-.142-.584.412-.416h-.19l.425-.296.411.296h-.233l.471.416-.159.584h-.249l-.242-.536-.206.536zm-1.303 0l.159-.584-.47-.416h.232l-.411-.296-.425.296h.19l-.412.416.142.584h.298l.206-.536.242.536h.249zm3.159-1.584L6.06 3.1h-.249l-.242-.536-.206.536h-.298l-.142-.584.412-.416h-.19l.425-.296.411.296h-.233l.471.416zM3.981 2.1l-.411-.296-.425.296h.19l-.412.416.142.584h.298l.206-.536.242.536h.249l.159-.584-.47-.416h.232z" clip-rule="evenodd"/></g></svg>
